X: 18162
T: Humours Of Drinagh, The
R: jig
M: 6/8
K: Dmajor
|:FDF ABc|dfd ecA|~F3 ABc|dAF [B,3G3]|
[A,3F3] ABc|d[df]d ecA|fAf gec|1 edc d2A:|2 edc [F2d2]e||
|:[df][df][df] [dg][dg][dg]|[da]Af [Bg]fe|fAf gBg|agf [B3g3]|
[A2a2]f [Bg]fe|[Af]ed ecA|fAf gec|1 [Ae]dc dAe:|2 [Ae]dc [d2D2]A||

